X:1
T:Easter After Calvary
T:Easter After Calvary
T:Gideon Froelich
T:Marian Froelich, 1888
T:Public Domain Courtesy of the Cyber Hymnal™
T:Public Domain Courtesy of the Cyber Hymnal™
C:Gideon Froelich
Z:Public Domain
Z:Courtesy of the Cyber Hymnal™
%%score ( 1 2 ) ( 3 4 )
L:1/8
Q:1/4=108
M:6/8
K:G
V:1 treble 
V:2 treble 
V:3 bass 
V:4 bass 
V:1
 [B,D]2 [B,D] [^A,^C]2 [B,D] | [DG]2 [DF] [DF]2 [CE] | [EG]2 [_EA] [DB]2 [DG] | %3
w: 1.~O’er the ho- ly|ci- ty slum- bering|Night her sa- ble|
w: 2.~From the hill of|death and an- guish,|May we to the|
w: 3.~Now no more are|thorns His crown- ing,|Glo- ry sits up-|
 [EG]2 [EA] !fermata![^DB]3 | [DB]2 [GB] [G^A]2 [GB] | [Fd]2 [Ac] [Ac]2 [GB] | %6
w: wings yet spread,|But the hours their|slow march num- bering,|
w: gar- den turn;|There we see the|suff- erer lan- guish,|
w: on His brow,|And re- vil- ing|stripes and frown- ing,|
 [FA]2 [FA] [Fd]2 [FA] | [EG]2 [^CE] D3 | [B,D]2 [B,D] [^A,^C]2 [B,D] | [DG]2 [DF] [DF]2 [CE] | %10
w: See the life a-|mong the dead.|Ser- aph hands turned|back the por- tal,|
w: Here Je- ho- vah’s|power we learn.|There the sun in|dark- ness hid- ing,|
w: Per- ish in His|tri- umph now.|Death the king He|has sub- ject- ed,|
 [EG]2 [_EA] [DB]2 [DG] | [EG]2 [EA] !fermata![^DB]3 | [DB]2 [GB] [G^A]2 [GB] | %13
w: Oped the dark and|rock- bound grave,|And the vic- tor|
w: Veiled her face be-|fore that sight;|Now as king of|
w: Sa- tan lies be-|neath His heel,|O’er them see the|
 [Fd]2 [Ac] [Ac]2 [GB] | [EA]2 E =E2 [_EA] | [DG]2 [DF] [DG]3 ||"^Refrain" DEF GAB | c2 A F2 D | %18
w: robed im- mor- tal,|Stood re- vealed the|world to save.|||
w: Heav’n a- bid- ing,|Dwells He as its|sun and light.|Hail the vic- tor! He has|con- quered, Death is|
w: cross e- rect- ed,|Love’s e- ter- nal|bond and seal.|||
 [Gd]2 [Bd] [^Ae]2 [Ae] | [Bd]2 [GB] [FA]3 | (DE)F (GA)B | c2 A F2 D | [GB]2 [GB] [Gc]2 [Ge] | %23
w: |||||
w: fet- tered, He is|free; Re- sur-|rect- * ion af- * ter|dy- ing, East- er|af- ter Cal- va-|
w: |||||
 !fermata![Gd]2 !fermata![Fd] G3 |] %24
w: |
w: ry! * *|
w: |
V:2
 x6 | x6 | x6 | x6 | x6 | x6 | x6 | x3 D3 | x6 | x6 | x6 | x6 | x6 | x6 | x2 _E _E2 x | x6 || %16
 (DE)F (GA)B | c2 A F2 D | x6 | x6 | DEF GAB | c2 A F2 D | x6 | x3 G3 |] %24
V:3
 [G,,G,]2 [G,,G,] [G,,G,]2 [G,,G,] | [B,,G,]2 [B,,G,] [C,G,]2 [C,G,] | %2
 [C,C]2 [C,G,] [G,,G,]2 [G,,B,] | [C,C]2 [C,F,] [B,,F,]3 | G,2 [G,D] [G,^C]2 [G,D] | %5
 [A,D]2 [F,D] [G,D]2 [G,D] | [A,D]2 [A,D] [A,D]2 [A,D] | [A,,A,]2 [A,,G,] [D,F,]3 | %8
 [G,,G,]2 [G,,G,] [G,,G,]2 [G,,G,] | [B,,G,]2 [B,,G,] [C,G,]2 [C,G,] | %10
 [C,C]2 [C,G,] [G,,G,]2 [G,,B,] | [C,C]2 [C,F,] !fermata![B,,F,]3 | G,2 [G,D] [G,^C]2 [G,D] | %13
 [A,D]2 [F,D] [G,D]2 [G,D] | [C,C]2 [C,A,] [C,A,]2 [C,C] | [D,B,]2 [D,A,] [G,B,]3 || %16
 D,E,F, (G,A,)B, | C2 A, F,2 D, | [G,B,]2 [G,D] [G,^C]2 [G,C] | [G,D]2 [G,^C] [D,D]3 | %20
 D,E,F, (G,A,)B, | C2 A, F,2 D, | [G,D]2 [=F,D] [E,C]2 [C,C] | %23
 !fermata![D,B,]2 !fermata![D,C] [G,B,]3 |] %24
V:4
 x6 | x6 | x6 | x6 | G,2 x4 | x6 | x6 | x6 | x6 | x6 | x6 | x6 | G,2 x4 | x6 | x6 | x6 || %16
 (D,E,)F, G,A,B, | C2 A, F,2 D, | x6 | x6 | (D,E,)F, G,A,B, | C2 A, F,2 D, | x6 | x6 |] %24

